images/logo2.svg

<svg fill="none" height="28" viewBox="0 0 74 28" width="74" xmlns="http://www.w3.org/2000/svg"><g fill="#3e5742"><path d="m0 8.03961c0 4.73059 3.62991 8.03959 8.46979 8.03959 4.83991 0 8.44611-3.309 8.44611-8.03959 0-4.73056-3.6062-8.03961-8.44611-8.03961-4.83988 0-8.46979 3.30905-8.46979 8.03961zm12.764 0c0 2.51669-1.6845 4.49749-4.29421 4.49749-2.63346 0-4.31793-1.9808-4.31793-4.49749 0-2.54005 1.68447-4.49752 4.31793-4.49752 2.60971 0 4.29421 1.95747 4.29421 4.49752z"/><path d="m18.971 15.7996h10.439v-3.4955h-6.3583v-12.047765h-4.0807z"/><path d="m30.1427 8.03961c0 4.73059 3.6299 8.03959 8.4698 8.03959 4.8398 0 8.446-3.309 8.446-8.03959 0-4.73056-3.6062-8.03961-8.446-8.03961-4.8399 0-8.4698 3.30905-8.4698 8.03961zm12.764 0c0 2.51669-1.6845 4.49749-4.2942 4.49749-2.6335 0-4.318-1.9808-4.318-4.49749 0-2.54005 1.6845-4.49752 4.318-4.49752 2.6097 0 4.2942 1.95747 4.2942 4.49752z"/><path d="m62.9928 15.7996h4.0806v-15.543265h-5.6702l-3.3215 8.808615-3.2978-8.808615h-5.6702v15.543265h4.0807v-10.48647l3.9858 10.48647h1.803l4.0096-10.48647z"/><path d="m69.9193 15.7996h4.0807v-15.543265h-4.0807z"/><path d="m5.15295 27.88h1.48458l-2.46153-6.1547h-1.70488l-2.47112 6.1547h1.49416l.40228-1.0611h2.85423zm-1.82939-5.0197 1.05357 2.8236h-2.11673z"/><path d="m7.22748 27.88h1.36007v-2.5652h3.09365v-1.1258h-3.09365v-1.338h3.16075v-1.1257h-4.52082z"/><path d="m12.3928 24.8073c0 1.9378 1.5324 3.1927 3.2756 3.1927 2.0497 0 3.2853-1.3288 3.2853-3.5157h-3.4864v1.1258h2.0018c-.1724.6459-.7375 1.218-1.6761 1.218-1.159 0-2.0018-.8582-2.0018-2.0208 0-1.1627.8428-2.0209 2.0018-2.0209.6704 0 1.2164.3415 1.5133.7751l1.1302-.5905c-.4885-.729-1.3218-1.3472-2.6435-1.3472-1.8678 0-3.4002 1.2365-3.4002 3.1835z"/><path d="m24.2038 27.88h1.3696v-6.1547h-1.3696v2.4176h-3.0171v-2.4176h-1.3601v6.1547h1.3601v-2.5837h3.0171z"/><path d="m31.3053 27.88h1.4846l-2.4616-6.1547h-1.7048l-2.4712 6.1547h1.4942l.4023-1.0611h2.8542zm-1.8294-5.0197 1.0536 2.8236h-2.1167z"/><path d="m37.7857 27.88h1.3122v-6.1547h-1.3601v3.9863l-2.9596-3.9863h-1.3984v6.1547h1.3601v-4.1339z"/><path d="m47.2811 27.88h1.4845l-2.4615-6.1547h-1.7049l-2.4711 6.1547h1.4942l.4022-1.0611h2.8543zm-1.8294-5.0197 1.0535 2.8236h-2.1167z"/><path d="m52.9665 27.88h1.5612l-1.4367-2.3438c.6896-.1568 1.3984-.7382 1.3984-1.827 0-1.1442-.8141-1.9839-2.1455-1.9839h-2.9883v6.1547h1.3601v-2.2053h.9961zm.1341-4.18c0 .5167-.4119.8489-.9578.8489h-1.4271v-1.6979h1.4271c.5459 0 .9578.3322.9578.849z"/><path d="m56.8916 27.88h1.3697v-5.0013h1.8581v-1.1534h-5.0955v1.1534h1.8677z"/><path d="m60.9913 27.88h1.3601v-6.1547h-1.3601z"/><path d="m63.1886 27.0127c.5939.5813 1.4751.9781 2.701.9781 1.7241 0 2.5574-.849 2.5574-1.9747 0-1.3657-1.341-1.6702-2.3945-1.9009-.7376-.1661-1.2739-.2953-1.2739-.7105 0-.3691.3256-.6275.9386-.6275.6226 0 1.3122.2122 1.8294.6736l.7567-.9596c-.6322-.5629-1.475-.8582-2.4903-.8582-1.5037 0-2.4232.8305-2.4232 1.8547 0 1.3749 1.3409 1.6518 2.3849 1.8824.7375.1661 1.293.323 1.293.7844 0 .3506-.3639.6921-1.111.6921-.8812 0-1.5804-.3784-2.0306-.8305z"/><path d="m70.7722 27.88h1.3697v-5.0013h1.8581v-1.1534h-5.0955v1.1534h1.8677z"/></g></svg>

<svg width="74" height="28" viewBox="0 0 74 28" fill="none" xmlns="http://www.w3.org/2000/svg">
<path d="M0 8.03961C0 12.7702 3.62991 16.0792 8.46979 16.0792C13.3097 16.0792 16.9159 12.7702 16.9159 8.03961C16.9159 3.30905 13.3097 0 8.46979 0C3.62991 0 0 3.30905 0 8.03961ZM12.764 8.03961C12.764 10.5563 11.0795 12.5371 8.46979 12.5371C5.83633 12.5371 4.15186 10.5563 4.15186 8.03961C4.15186 5.49956 5.83633 3.54209 8.46979 3.54209C11.0795 3.54209 12.764 5.49956 12.764 8.03961Z" fill="#3E5742"/>
<path d="M18.971 15.7996H29.41V12.3041H23.0517V0.256335H18.971V15.7996Z" fill="#3E5742"/>
<path d="M30.1427 8.03961C30.1427 12.7702 33.7726 16.0792 38.6125 16.0792C43.4523 16.0792 47.0585 12.7702 47.0585 8.03961C47.0585 3.30905 43.4523 0 38.6125 0C33.7726 0 30.1427 3.30905 30.1427 8.03961ZM42.9067 8.03961C42.9067 10.5563 41.2222 12.5371 38.6125 12.5371C35.979 12.5371 34.2945 10.5563 34.2945 8.03961C34.2945 5.49956 35.979 3.54209 38.6125 3.54209C41.2222 3.54209 42.9067 5.49956 42.9067 8.03961Z" fill="#3E5742"/>
<path d="M62.9928 15.7996H67.0734V0.256335H61.4032L58.0817 9.06495L54.7839 0.256335H49.1137V15.7996H53.1944V5.31313L57.1802 15.7996H58.9832L62.9928 5.31313V15.7996Z" fill="#3E5742"/>
<path d="M69.9193 15.7996H74V0.256335H69.9193V15.7996Z" fill="#3E5742"/>
<path d="M5.15295 27.88H6.63753L4.176 21.7253H2.47112L0 27.88H1.49416L1.89644 26.8189H4.75067L5.15295 27.88ZM3.32356 22.8603L4.37713 25.6839H2.2604L3.32356 22.8603Z" fill="#3E5742"/>
<path d="M7.22748 27.88H8.58755V25.3148H11.6812V24.189H8.58755V22.851H11.7483V21.7253H7.22748V27.88Z" fill="#3E5742"/>
<path d="M12.3928 24.8073C12.3928 26.7451 13.9252 28 15.6684 28C17.7181 28 18.9537 26.6712 18.9537 24.4843H15.4673V25.6101H17.4691C17.2967 26.256 16.7316 26.8281 15.793 26.8281C14.634 26.8281 13.7912 25.9699 13.7912 24.8073C13.7912 23.6446 14.634 22.7864 15.793 22.7864C16.4634 22.7864 17.0094 23.1279 17.3063 23.5615L18.4365 22.971C17.948 22.242 17.1147 21.6238 15.793 21.6238C13.9252 21.6238 12.3928 22.8603 12.3928 24.8073Z" fill="#3E5742"/>
<path d="M24.2038 27.88H25.5734V21.7253H24.2038V24.1429H21.1867V21.7253H19.8266V27.88H21.1867V25.2963H24.2038V27.88Z" fill="#3E5742"/>
<path d="M31.3053 27.88H32.7899L30.3283 21.7253H28.6235L26.1523 27.88H27.6465L28.0488 26.8189H30.903L31.3053 27.88ZM29.4759 22.8603L30.5295 25.6839H28.4128L29.4759 22.8603Z" fill="#3E5742"/>
<path d="M37.7857 27.88H39.0979V21.7253H37.7378V25.7116L34.7782 21.7253H33.3798V27.88H34.7399V23.7461L37.7857 27.88Z" fill="#3E5742"/>
<path d="M47.2811 27.88H48.7656L46.3041 21.7253H44.5992L42.1281 27.88H43.6223L44.0245 26.8189H46.8788L47.2811 27.88ZM45.4517 22.8603L46.5052 25.6839H44.3885L45.4517 22.8603Z" fill="#3E5742"/>
<path d="M52.9665 27.88H54.5277L53.091 25.5362C53.7806 25.3794 54.4894 24.798 54.4894 23.7092C54.4894 22.565 53.6753 21.7253 52.3439 21.7253H49.3556V27.88H50.7157V25.6747H51.7118L52.9665 27.88ZM53.1006 23.7C53.1006 24.2167 52.6887 24.5489 52.1428 24.5489H50.7157V22.851H52.1428C52.6887 22.851 53.1006 23.1832 53.1006 23.7Z" fill="#3E5742"/>
<path d="M56.8916 27.88H58.2613V22.8787H60.1194V21.7253H55.0239V22.8787H56.8916V27.88Z" fill="#3E5742"/>
<path d="M60.9913 27.88H62.3514V21.7253H60.9913V27.88Z" fill="#3E5742"/>
<path d="M63.1886 27.0127C63.7825 27.594 64.6637 27.9908 65.8896 27.9908C67.6137 27.9908 68.447 27.1418 68.447 26.0161C68.447 24.6504 67.106 24.3459 66.0525 24.1152C65.3149 23.9491 64.7786 23.8199 64.7786 23.4047C64.7786 23.0356 65.1042 22.7772 65.7172 22.7772C66.3398 22.7772 67.0294 22.9894 67.5466 23.4508L68.3033 22.4912C67.6711 21.9283 66.8283 21.633 65.813 21.633C64.3093 21.633 63.3898 22.4635 63.3898 23.4877C63.3898 24.8626 64.7307 25.1395 65.7747 25.3701C66.5122 25.5362 67.0677 25.6931 67.0677 26.1545C67.0677 26.5051 66.7038 26.8466 65.9567 26.8466C65.0755 26.8466 64.3763 26.4682 63.9261 26.0161L63.1886 27.0127Z" fill="#3E5742"/>
<path d="M70.7722 27.88H72.1419V22.8787H74V21.7253H68.9045V22.8787H70.7722V27.88Z" fill="#3E5742"/>
</svg>
